Pods/ProtonCore-UIFoundations/libraries/UIFoundations/Sources/Assets.xcassets/Images/IconSet/ic-brand-proton-mail.imageset/ic-brand-proton-mail.svg

<svg width="24" height="24" viewBox="0 0 24 24" fill="none" xmlns="http://www.w3.org/2000/svg">
<path fill-rule="evenodd" clip-rule="evenodd" d="M3.91392 4.06616C2.92803 3.30379 1.49634 4.0065 1.49634 5.25277V17.2449C1.49634 18.9018 2.83948 20.2449 4.49634 20.2449H19.5034C21.1603 20.2449 22.5034 18.9018 22.5034 17.2449V5.25277C22.5034 4.00649 21.0718 3.30379 20.0859 4.06616L12.4587 9.96413C12.1885 10.1731 11.8113 10.1731 11.5411 9.96413L3.91392 4.06616ZM2.99634 5.25277L10.6235 11.1507C10.893 11.3591 11.198 11.4983 11.5149 11.5681L10.7384 12.2628C10.2458 12.7036 9.50646 12.7228 8.9916 12.3082L2.99634 7.48059V5.25277ZM19.5034 18.7449H18.2768V7.36122L21.0034 5.25277V17.2449C21.0034 18.0733 20.3319 18.7449 19.5034 18.7449Z" fill="#0C0C14"/>
</svg>

<svg xmlns="http://www.w3.org/2000/svg" width="24" height="24" viewBox="0 0 24 24">
  <g class="ic-brand-proton-mail">
    <path fill-rule="evenodd" d="M3.914 4.066c-.986-.762-2.418-.06-2.418 1.187v11.992a3 3 0 0 0 3 3h15.007a3 3 0 0 0 3-3V5.253c0-1.247-1.431-1.95-2.417-1.187l-7.628 5.898a.75.75 0 0 1-.917 0L3.914 4.066Zm-.918 1.187 7.627 5.898c.27.208.575.347.892.417l-.777.695a1.35 1.35 0 0 1-1.747.045L2.996 7.481V5.253Zm16.507 13.492h-1.226V7.36l2.726-2.108v11.992a1.5 1.5 0 0 1-1.5 1.5Z" class="Icon"/>
  </g>
</svg>
